X: 40267
T: To War
R: jig
M: 6/8
K: Eminor
|:EBB EBB|DAA DAA|EBB BBA|BBA GEE|
EBB EBB|DAA DAA|EBB B2A|B2A GEE:|
|:eBE BGE|dAD AFD|eBB BBA|BBA GEE|
eBE BGE|dAD AFD|eBB B2c|BBA GEE:|

